X: 1
T: 6/8 du Petit Sarny
C:Eric Favreau
R: jig
M: 6/8
L: 1/8
Z: Contributed 2016-03-08 23:27:23 by debby knight debbyjk@aol.com
K:Amaj
A2B|: c3 cde | c3 cBA | FGA BAB | cAF E2B |
c3 cde |c3 cBA | FGA BAB |1 cAA A2 B :|2 cAA A||
cd| ece aec | ~B3 cAF | Ecc Edd | Ecc Bcd |
ece aec |~B3 cAF | Eag fec| BAG Acd|
ece a2g | ~f3 aed | cea aga | ~b3- bcd |
ece a2g | ~f3 aed | cea gfg | ~a3 -a3 ||
